art/tws.svg

<svg version="1.0" viewBox="0 0 499 499" xmlns="http://www.w3.org/2000/svg">
  <defs>
    <linearGradient gradientUnits="userSpaceOnUse" x1="103.031" y1="227.863" x2="103.031" y2="282.948" id="gradient-1" gradientTransform="matrix(0.550076, -0.835115, 1.270829, 0.837073, -283.306263, 129.150917)">
      <stop offset="0" style="stop-color: rgb(21, 88, 164);"></stop>
      <stop offset="1" style="stop-color: rgb(0, 21, 51);"></stop>
    </linearGradient>
    <linearGradient gradientUnits="userSpaceOnUse" x1="325.95" y1="183.164" x2="325.95" y2="310.879" id="gradient-0">
      <stop offset="0" style="stop-color: rgb(21, 88, 164);"></stop>
      <stop offset="1" style="stop-color: rgb(0, 21, 51);"></stop>
    </linearGradient>
  </defs>
  <path d="M 196.7 183.6 C 196.3 184 196 188 196 192.4 C 195.9 209.9 193.6 213.4 182 214.6 L 174.9 215.3 L 175.2 222.4 L 175.5 229.5 L 184.7 229.8 L 193.9 230.1 L 194.2 260.3 C 194.5 288.5 194.6 290.8 196.6 295 C 201.5 305.5 209 309.2 224.6 308.8 L 234.5 308.5 L 234.8 304.5 C 235 302.4 234.9 299.1 234.5 297.3 L 233.9 294 L 227.4 294 C 221.3 294 220.6 293.8 217.5 290.7 C 213.1 286.3 212.8 283.9 213.2 254.5 L 213.5 230.5 L 222.9 230.2 C 228.1 230.1 233 229.4 233.7 228.8 C 235.2 227.6 235.5 218.3 234.1 216.1 C 233.3 214.8 228.6 214.3 216.3 214.1 L 213.1 214 L 212.8 198.7 L 212.5 183.5 L 205 183.2 C 200.8 183.1 197.1 183.2 196.7 183.6 Z M 426.6 214.5 C 419.1 216.6 412.9 221 409.5 226.4 C 406.8 230.9 406.5 232.1 406.5 240 C 406.5 247.8 406.8 249.1 409.3 252.9 C 412.7 258 419.1 262.2 427.4 264.9 C 430.8 266 437.5 268.1 442.5 269.7 C 453.7 273.2 459 277.6 459 283.4 C 459 285.4 458.4 288.3 457.6 289.9 C 454.2 296.3 438.9 298.7 430.3 294.2 C 426.4 292.1 421 286.5 421 284.3 C 421 283.8 420.4 282.6 419.7 281.6 C 418.4 279.9 418.1 279.9 411.2 281.9 C 407.3 283.1 403.8 284.5 403.4 285.1 C 403.1 285.7 404.2 289.1 406 292.6 C 411.2 303.3 421.9 309.5 437 310.7 C 451.9 311.8 464.5 307.8 471.4 299.9 C 475.7 294.8 477 290.7 477 282.1 C 477 266.6 469.1 259.9 442 252.5 C 430.2 249.3 427 247.4 424.7 242.7 C 423.1 239.6 423 238.5 424 235.5 C 424.6 233.6 426.6 231 428.3 229.8 C 431 227.8 432.8 227.5 440.2 227.5 C 451.1 227.5 453.2 228.8 459.6 239.6 C 460.5 241.2 461.2 241.2 466.5 240.2 C 474.9 238.5 475.7 237.4 473 231.4 C 470.1 224.7 464.9 219.7 457.6 216.4 C 452.5 214.1 449.9 213.6 441.5 213.4 C 435.1 213.2 429.8 213.6 426.6 214.5 Z M 313.7 214.7 C 312.2 214.9 310.5 216 310 217 C 309.1 218.6 290.9 269.3 287.7 278.7 C 287.1 280.5 286.4 282 286 282 C 285.4 282 283.3 275.7 269.4 232.7 L 263.6 215 L 244.8 215 L 245.3 217.7 C 245.6 220 273.3 301.7 275.5 307.3 C 276.1 308.8 277.4 309 284.9 308.8 L 293.5 308.5 L 299 293 C 302.1 284.5 307.5 269.3 311 259.3 C 314.6 249.2 317.7 241 318 241 C 318.6 241 327.9 266.9 337.7 295.7 L 342.2 309 L 359.7 309 L 368 285.2 C 372.5 272.2 379.8 251.2 384.2 238.7 C 388.6 226.2 391.9 215.6 391.6 215.2 C 390.6 214.2 376.9 214.1 374.3 215.1 C 372.5 215.8 370.4 221.2 361.3 248.9 C 355.4 267.1 350.2 282 349.9 282 C 349.5 282 348.5 280.1 347.7 277.7 C 331 230.8 325.8 216.4 325.2 215.8 C 324.2 214.8 317.1 214.1 313.7 214.7 Z" style="fill: url(#gradient-0);"></path>
  <path d="M 56.131 241.063 C 48.931 248.363 43.031 254.763 43.031 255.363 C 43.031 255.963 49.031 262.363 56.331 269.663 C 70.331 283.563 72.831 284.963 76.331 281.063 C 79.931 277.163 78.631 274.163 69.131 264.463 L 60.131 255.363 L 69.131 246.163 C 75.731 239.363 78.031 236.263 78.031 234.363 C 78.031 229.863 76.331 227.863 72.631 227.863 C 69.631 227.863 67.731 229.363 56.131 241.063 Z M 107.831 229.563 C 105.231 232.563 88.031 273.463 88.031 276.663 C 88.031 281.663 93.331 284.563 97.331 281.563 C 99.831 279.763 118.031 237.363 118.031 233.463 C 118.031 231.763 117.531 229.763 116.831 229.063 C 115.031 227.263 109.531 227.563 107.831 229.563 Z M 128.431 230.363 C 126.031 234.063 127.631 237.063 137.031 246.363 C 141.431 250.763 145.031 254.763 145.031 255.263 C 145.031 255.763 141.331 259.963 136.831 264.563 C 132.231 269.163 128.131 273.663 127.731 274.463 C 125.931 277.763 129.531 282.863 133.731 282.863 C 135.731 282.863 139.431 279.763 149.731 269.663 C 157.031 262.363 163.031 255.963 163.031 255.363 C 163.031 254.763 157.031 248.363 149.731 241.063 C 138.231 229.663 136.031 227.863 133.331 227.863 C 130.931 227.863 129.631 228.563 128.431 230.363 Z" style="fill: url(#gradient-1);"></path>
</svg>

<svg xmlns="http://www.w3.org/2000/svg" version="1.0" viewBox="0 0 499 499"><path d="M196.7 183.6c-.4.4-.7 4.4-.7 8.8-.1 17.5-2.4 21-14 22.2l-7.1.7.3 7.1.3 7.1 9.2.3 9.2.3.3 30.2c.3 28.2.4 30.5 2.4 34.7 4.9 10.5 12.4 14.2 28 13.8l9.9-.3.3-4c.2-2.1.1-5.4-.3-7.2l-.6-3.3h-6.5c-6.1 0-6.8-.2-9.9-3.3-4.4-4.4-4.7-6.8-4.3-36.2l.3-24 9.4-.3c5.2-.1 10.1-.8 10.8-1.4 1.5-1.2 1.8-10.5.4-12.7-.8-1.3-5.5-1.8-17.8-2l-3.2-.1-.3-15.3-.3-15.2-7.5-.3c-4.2-.1-7.9 0-8.3.4zm229.9 30.9c-7.5 2.1-13.7 6.5-17.1 11.9-2.7 4.5-3 5.7-3 13.6 0 7.8.3 9.1 2.8 12.9 3.4 5.1 9.8 9.3 18.1 12 3.4 1.1 10.1 3.2 15.1 4.8 11.2 3.5 16.5 7.9 16.5 13.7 0 2-.6 4.9-1.4 6.5-3.4 6.4-18.7 8.8-27.3 4.3-3.9-2.1-9.3-7.7-9.3-9.9 0-.5-.6-1.7-1.3-2.7-1.3-1.7-1.6-1.7-8.5.3-3.9 1.2-7.4 2.6-7.8 3.2-.3.6.8 4 2.6 7.5 5.2 10.7 15.9 16.9 31 18.1 14.9 1.1 27.5-2.9 34.4-10.8 4.3-5.1 5.6-9.2 5.6-17.8 0-15.5-7.9-22.2-35-29.6-11.8-3.2-15-5.1-17.3-9.8-1.6-3.1-1.7-4.2-.7-7.2.6-1.9 2.6-4.5 4.3-5.7 2.7-2 4.5-2.3 11.9-2.3 10.9 0 13 1.3 19.4 12.1.9 1.6 1.6 1.6 6.9.6 8.4-1.7 9.2-2.8 6.5-8.8-2.9-6.7-8.1-11.7-15.4-15-5.1-2.3-7.7-2.8-16.1-3-6.4-.2-11.7.2-14.9 1.1zm-112.9.2c-1.5.2-3.2 1.3-3.7 2.3-.9 1.6-19.1 52.3-22.3 61.7-.6 1.8-1.3 3.3-1.7 3.3-.6 0-2.7-6.3-16.6-49.3l-5.8-17.7h-18.8l.5 2.7c.3 2.3 28 84 30.2 89.6.6 1.5 1.9 1.7 9.4 1.5l8.6-.3L299 293c3.1-8.5 8.5-23.7 12-33.7 3.6-10.1 6.7-18.3 7-18.3.6 0 9.9 25.9 19.7 54.7l4.5 13.3h17.5l8.3-23.8c4.5-13 11.8-34 16.2-46.5 4.4-12.5 7.7-23.1 7.4-23.5-1-1-14.7-1.1-17.3-.1-1.8.7-3.9 6.1-13 33.8-5.9 18.2-11.1 33.1-11.4 33.1-.4 0-1.4-1.9-2.2-4.3-16.7-46.9-21.9-61.3-22.5-61.9-1-1-8.1-1.7-11.5-1.1zM28.1 233.2c-7.2 7.3-13.1 13.7-13.1 14.3 0 .6 6 7 13.3 14.3 14 13.9 16.5 15.3 20 11.4 3.6-3.9 2.3-6.9-7.2-16.6l-9-9.1 9-9.2c6.6-6.8 8.9-9.9 8.9-11.8 0-4.5-1.7-6.5-5.4-6.5-3 0-4.9 1.5-16.5 13.2zm51.7-11.5c-2.6 3-19.8 43.9-19.8 47.1 0 5 5.3 7.9 9.3 4.9 2.5-1.8 20.7-44.2 20.7-48.1 0-1.7-.5-3.7-1.2-4.4-1.8-1.8-7.3-1.5-9 .5zm20.6.8c-2.4 3.7-.8 6.7 8.6 16 4.4 4.4 8 8.4 8 8.9s-3.7 4.7-8.2 9.3c-4.6 4.6-8.7 9.1-9.1 9.9-1.8 3.3 1.8 8.4 6 8.4 2 0 5.7-3.1 16-13.2 7.3-7.3 13.3-13.7 13.3-14.3 0-.6-6-7-13.3-14.3-11.5-11.4-13.7-13.2-16.4-13.2-2.4 0-3.7.7-4.9 2.5z"/></svg>
